X:42
T:Belted Plaid and Health to Wear It, The
R:Reel
B:The Athole Collection
M:C|
L:1/8
K:E
A|G/A/B BA BABA|G/A/B Bc =dDDA|G/A/B BA GABg|afdB e2e:|
a|gfea gebe|f=daf fdda|gfea gebg|afdB e2 ea|gfeb gebe|f=dad fdda|
gebg afdB|cAfd e2e||

